public/category-1.svg.svg

<svg width="31" height="31" viewBox="0 0 31 31" fill="none" xmlns="http://www.w3.org/2000/svg">
<g clip-path="url(#clip0_6511_522)">
<path d="M4.1875 11.8315L3.8125 9.76898V7.89398C3.875 7.45647 4.0375 6.58148 4.1875 6.58148C4.3375 6.58148 5.3125 6.20648 6.0625 6.01898L7.5625 5.83148C7.9375 5.83148 8.125 5.83148 10 5.45648C10.1471 5.42708 11.125 5.26898 11.5 5.26898L10.9375 4.51898L11.6875 5.26898L12.4375 6.01898L12.625 6.58148C12.375 6.64399 11.8 6.76898 11.5 6.76898H10L9.25 7.14398V7.70648C9.25 7.85648 9.12501 9.14397 9.0625 9.76898L8.875 11.644L8.125 11.8315H4.5625H4.1875Z" fill="#FDC040"/>
<path d="M18.0625 6.76896L18.8125 5.83146L21.25 4.14396L24.0625 3.01896C24.9375 2.76896 26.9125 2.38146 27.8125 2.83146C28.9375 3.39396 29.125 3.58146 30.0625 5.26896C30 6.58146 29.7625 9.31896 29.3125 9.76896L28.375 11.4565L27.8125 11.8315H25H20.875H19.5625V10.519C19.5625 10.3315 19.375 9.01896 19.375 8.83146V7.70646L19.1875 6.95646L18.8125 6.76896H18.0625Z" fill="#FDC040"/>
<path d="M21.9768 5.43867C21.7159 5.69956 21.5723 6.0464 21.5723 6.41532C21.5723 6.78421 21.7159 7.13105 21.9767 7.39194L25.1695 10.5846C25.4303 10.8455 25.7771 10.9891 26.146 10.9891C26.515 10.9891 26.8618 10.8455 27.1226 10.5846C27.3835 10.3238 27.5271 9.97692 27.5271 9.60804C27.5271 9.23911 27.3835 8.89227 27.1226 8.63139L23.9299 5.43864C23.3915 4.90017 22.5152 4.90032 21.9768 5.43867ZM26.5012 9.25295C26.596 9.34775 26.6482 9.4739 26.6482 9.60804C26.6482 9.74214 26.596 9.86825 26.5011 9.96312C26.4063 10.058 26.2801 10.1102 26.146 10.1102C26.0119 10.1102 25.8858 10.058 25.7909 9.96312L22.5982 6.77034C22.5034 6.67554 22.4511 6.54939 22.4511 6.41525C22.4511 6.28111 22.5034 6.15504 22.5983 6.06016C22.6961 5.96225 22.8247 5.91331 22.9534 5.91331C23.0819 5.91331 23.2106 5.96225 23.3084 6.06016L26.5012 9.25295Z" fill="#3BB77E"/>
<path d="M30.3307 13.5293C30.1469 12.6214 29.4915 11.8933 28.6531 11.5842C30.7322 8.11558 31.0204 4.86737 29.3572 3.20402C28.6275 2.47444 27.5708 2.10089 26.299 2.12433C26.0563 2.12878 25.8632 2.32912 25.8676 2.57177C25.872 2.81172 26.0679 3.00321 26.3069 3.00321C26.3096 3.00321 26.3124 3.00321 26.3151 3.00315C27.3556 2.98387 28.171 3.2608 28.7357 3.82549C29.6089 4.69873 29.6325 6.02552 29.4985 6.98481C29.309 8.34141 28.6953 9.87129 27.7218 11.4223C25.1871 11.374 22.6415 11.3406 20.0918 11.3223C20.0752 9.82554 19.9826 8.31054 19.8143 6.81182C19.7913 6.60722 19.6293 6.44597 19.4245 6.42392C19.2935 6.40986 19.1622 6.39733 19.0311 6.38432C20.8863 4.81551 22.8697 3.71046 24.6954 3.23941C24.9305 3.17877 25.0718 2.93911 25.0111 2.70408C24.9505 2.46905 24.7107 2.32766 24.4758 2.38836C23.7762 2.5689 23.0566 2.83516 22.3313 3.17835C22.4725 2.56409 22.5399 1.82772 22.2702 1.27827C22.1078 0.947137 21.8388 0.721368 21.4925 0.625331C20.9794 0.483176 20.1823 0.557828 19.2967 1.72125C19.2539 1.77756 19.2125 1.83428 19.1726 1.89071C19.1679 1.87401 19.163 1.85737 19.1579 1.84067C18.9839 1.26162 18.529 0.290161 17.4362 0.290161C17.0566 0.290161 16.7257 0.441456 16.4791 0.727638C16.1571 1.1013 16.0162 1.6817 15.9657 2.26015C15.5811 1.75435 15.1152 1.34782 14.6113 1.34782C14.2839 1.34782 13.9853 1.51458 13.7707 1.81741C13.2052 2.61513 13.197 4.34394 13.7223 6.15527C13.5907 6.15692 13.4593 6.15988 13.3278 6.16266C12.4668 5.15796 11.426 4.46653 10.9707 4.18986V3.22652C11.177 3.19036 11.3339 3.01077 11.3339 2.79408V1.55331C11.3339 0.884617 10.7899 0.340612 10.1212 0.340612H7.38843C6.71973 0.340612 6.17571 0.884617 6.17571 1.55331V2.79408C6.17571 3.01077 6.33269 3.19036 6.53901 3.22652L6.53868 4.18967C5.94531 4.55004 4.3603 5.61219 3.47321 7.15449C3.29227 7.46777 3.20848 7.82882 3.23116 8.19943C3.2737 8.87488 3.37934 10.188 3.60898 11.4142C3.42904 11.4175 3.24891 11.4205 3.06908 11.424C1.84841 11.447 0.786534 12.3325 0.544299 13.5291C0.40191 14.2302 0.40191 14.9412 0.54424 15.6419C0.72202 16.5215 1.34507 17.2474 2.16799 17.5678C2.21628 18.4624 2.29895 19.7346 2.43431 21.1805C2.07154 22.208 1.71622 23.2358 1.37156 24.2616C1.075 25.1452 1.47205 26.1257 2.29567 26.5428C2.60904 26.701 2.93853 26.8237 3.27575 26.909C3.59093 27.8028 4.15346 28.5739 4.91568 29.1502C5.75733 29.7865 6.76026 30.1229 7.81604 30.1229H23.059C24.1148 30.1229 25.1177 29.7865 25.9594 29.1502C26.7217 28.5738 27.2842 27.8027 27.5994 26.9088C27.9382 26.8228 28.2676 26.6999 28.5796 26.5422C29.4034 26.1259 29.8005 25.1452 29.5035 24.261C29.1585 23.2346 28.8033 22.2068 28.4408 21.1801C28.5761 19.7343 28.6588 18.4621 28.7071 17.5676C29.5309 17.2463 30.1532 16.5209 30.3307 15.6424C30.4731 14.9411 30.4731 14.2301 30.3307 13.5293ZM18.9787 7.26156C19.1194 8.61103 19.1975 9.97161 19.2129 11.3171C15.9532 11.2982 12.6882 11.3036 9.43176 11.3337C9.44672 9.98293 9.52495 8.61677 9.6661 7.26148C12.7576 6.95304 15.887 6.95304 18.9787 7.26156ZM14.4877 2.32567C14.5197 2.28055 14.5671 2.22676 14.6113 2.22676C14.9276 2.22676 15.5913 3.12948 16.0633 4.20167C16.141 4.39164 16.3412 4.50332 16.5451 4.46799C16.7557 4.43143 16.9095 4.24873 16.9095 4.03498C16.9095 4.00824 16.9069 3.98147 16.902 3.9551C16.6823 2.47011 16.9265 1.55478 17.145 1.30135C17.2249 1.20859 17.312 1.16904 17.4362 1.16904C18.4494 1.16904 18.4832 3.18486 18.4833 3.20466C18.4833 3.41239 18.6288 3.59157 18.832 3.63447C19.0356 3.67741 19.2409 3.572 19.3249 3.38197C19.6391 2.67126 20.524 1.26918 21.2575 1.47239C21.362 1.50134 21.4288 1.55911 21.481 1.66552C21.6679 2.04652 21.5679 2.88918 21.2405 3.75019C20.0782 4.41834 18.919 5.27304 17.8198 6.28014C16.7621 6.20259 15.7013 6.16029 14.6403 6.15328C14.028 4.23354 14.1714 2.77193 14.4877 2.32567ZM10.0918 4.00251H7.41771L7.41801 3.23355H10.0919L10.0918 4.00251ZM7.38843 1.21949H10.1212C10.3053 1.21949 10.455 1.3692 10.455 1.55325V2.35444H7.05468V1.55331C7.05468 1.36926 7.20438 1.21949 7.38843 1.21949ZM4.4755 11.2664C4.25267 10.083 4.14982 8.80228 4.10839 8.14502C4.09638 7.94799 4.13992 7.75749 4.23471 7.59339C5.07295 6.13599 6.69299 5.11869 7.09555 4.88139H10.4138C10.6707 5.03256 11.4244 5.50187 12.1542 6.20124C11.1738 6.24568 10.1952 6.31926 9.22049 6.42399C9.0157 6.44597 8.85366 6.60722 8.83071 6.81189C8.66166 8.31756 8.569 9.83938 8.55302 11.3426C7.20366 11.3569 5.85591 11.3751 4.51101 11.3979C4.49658 11.355 4.48405 11.3113 4.4755 11.2664ZM3.05818 17.7469C3.06187 17.747 3.0655 17.7473 3.0692 17.7474L3.08326 17.7476C3.28032 17.7513 3.47738 17.7545 3.67449 17.7581C3.49835 18.2315 3.32344 18.7055 3.15059 19.1802C3.11185 18.6448 3.08162 18.1618 3.05818 17.7469ZM23.059 29.2439H7.816C6.26406 29.2439 4.85879 28.3124 4.2283 26.9227C4.80561 26.7787 5.30627 26.3632 5.53608 25.7771C5.78935 25.1315 6.01945 24.5368 6.23958 23.959C6.32601 23.7322 6.21224 23.4783 5.9854 23.3918C5.75856 23.3055 5.50469 23.4192 5.41825 23.646C5.1991 24.2212 4.96997 24.8132 4.71779 25.4562C4.53569 25.9207 4.03925 26.1868 3.56193 26.0747C3.26204 26.0047 2.96923 25.8983 2.69219 25.7584C2.25559 25.5373 2.04605 25.014 2.20473 24.5414C3.33147 21.1884 4.56051 17.8117 5.85768 14.5052C6.04008 14.0406 6.53684 13.7743 7.01286 13.8858C7.31571 13.9569 7.60855 14.0635 7.8838 14.203C8.32049 14.4236 8.52985 14.9467 8.37085 15.4198C7.63345 17.6139 6.8485 19.8294 6.03767 22.0048C5.95289 22.2322 6.06854 22.4853 6.29597 22.5701C6.52341 22.6549 6.77646 22.5392 6.86125 22.3118C7.41377 20.8292 7.95393 19.3282 8.47577 17.8279C10.7866 17.853 13.1118 17.866 15.4375 17.866C17.7633 17.866 20.0888 17.8531 22.3997 17.8279C23.3275 20.4953 24.3121 23.1604 25.3388 25.7767C25.5687 26.3628 26.0694 26.7783 26.6468 26.9224C26.0164 28.3122 24.6109 29.2439 23.059 29.2439ZM28.1831 25.7577C27.9067 25.8973 27.6138 26.004 27.3124 26.0746C26.8362 26.1862 26.3394 25.9201 26.1571 25.4556C24.8626 22.1566 23.6335 18.7799 22.5041 15.4193C22.3451 14.9463 22.5546 14.4232 22.9913 14.2025C23.2675 14.0629 23.5605 13.9562 23.8619 13.8856C23.935 13.8685 24.0085 13.8602 24.0813 13.8602C24.4832 13.8602 24.8629 14.1113 25.0173 14.5046C26.3117 17.8036 27.5407 21.1802 28.6702 24.541C28.8291 25.0139 28.6197 25.537 28.1831 25.7577ZM27.2008 17.7581C27.3976 17.7545 27.5944 17.7513 27.7912 17.7476L27.8069 17.7473C27.8102 17.7473 27.8136 17.7469 27.8169 17.7469C27.7934 18.1616 27.7631 18.6445 27.7245 19.1796C27.5516 18.705 27.3768 18.2312 27.2008 17.7581ZM29.4692 15.4678C29.3363 16.1254 28.8295 16.6548 28.1755 16.8171C28.0522 16.8485 27.9219 16.8658 27.7894 16.8686L27.7748 16.8689C27.4744 16.8745 27.1741 16.8797 26.8737 16.8848C26.5327 15.98 26.1867 15.0788 25.8354 14.1835C25.4948 13.3152 24.5598 12.8192 23.6614 13.0298C23.2921 13.1164 22.9331 13.247 22.5947 13.4181C21.771 13.8344 21.3738 14.8151 21.6709 15.6993C21.8111 16.1167 21.953 16.5343 22.0962 16.952C17.6739 16.9979 13.2006 16.9979 8.77825 16.952C8.92158 16.5342 9.06385 16.1166 9.20384 15.6999C9.50121 14.8154 9.10397 13.8347 8.28044 13.4187C7.94339 13.2479 7.58448 13.1172 7.21345 13.0301C6.31499 12.8197 5.38034 13.3157 5.03935 14.1841C4.68797 15.0797 4.34208 15.9808 4.00134 16.8849C3.70074 16.8798 3.40009 16.8745 3.09949 16.8689L3.08654 16.8687C2.95288 16.8659 2.82268 16.8485 2.69682 16.8165C2.04535 16.6548 1.5385 16.1254 1.40554 15.4675C1.28677 14.8824 1.28677 14.2891 1.4056 13.7038C1.56686 12.9073 2.27341 12.3181 3.08572 12.3028C11.2817 12.1455 19.5931 12.1455 27.7892 12.3028C28.6014 12.3181 29.3079 12.9073 29.4692 13.7041C29.5881 14.289 29.5881 14.8823 29.4692 15.4678Z" fill="#3BB77E"/>
<path d="M9.62808 19.3704H9.59842C8.59195 19.3728 7.77978 20.1672 7.7494 21.1789C7.71374 22.3704 7.71374 23.5788 7.7494 24.7703C7.77978 25.782 8.59192 26.5764 9.59875 26.5788H9.62808C10.6345 26.5764 11.4467 25.782 11.4771 24.7703C11.5128 23.5788 11.5128 22.3704 11.4771 21.1789C11.4466 20.1671 10.6345 19.3728 9.62808 19.3704ZM10.5985 24.744C10.5827 25.2698 10.1464 25.6986 9.62632 25.6998H9.60052C9.08002 25.6986 8.6437 25.2697 8.62795 24.744C8.59274 23.5699 8.59274 22.3793 8.62795 21.2052C8.6437 20.6793 9.08002 20.2506 9.60082 20.2493H9.6256C10.1461 20.2506 10.5827 20.6793 10.5985 21.2052C10.6337 22.3793 10.6337 23.5699 10.5985 24.744Z" fill="#3BB77E"/>
<path d="M15.4523 19.3704H15.4226C14.4162 19.3728 13.604 20.1672 13.5736 21.1789C13.538 22.3704 13.538 23.5788 13.5736 24.7703C13.604 25.782 14.4161 26.5764 15.423 26.5788H15.4523C16.4588 26.5764 17.2709 25.782 17.3013 24.7703C17.3369 23.5788 17.3369 22.3704 17.3013 21.1789C17.2709 20.1672 16.4588 19.3728 15.4523 19.3704ZM16.4227 24.744C16.4069 25.2698 15.9707 25.6986 15.4506 25.6998H15.4248C14.9043 25.6986 14.468 25.2697 14.4522 24.744C14.417 23.5699 14.417 22.3793 14.4522 21.2052C14.468 20.6793 14.9043 20.2506 15.4251 20.2493H15.4499C15.9704 20.2506 16.4069 20.6793 16.4227 21.2052C16.4579 22.3793 16.4579 23.5699 16.4227 24.744Z" fill="#3BB77E"/>
<path d="M21.2764 19.3704H21.2468C20.2403 19.3728 19.4282 20.1672 19.3979 21.1789C19.3622 22.3704 19.3622 23.5788 19.3979 24.7703C19.4282 25.782 20.2403 26.5764 21.2472 26.5788H21.2765C22.283 26.5764 23.0951 25.782 23.1255 24.7703C23.1612 23.5788 23.1612 22.3704 23.1255 21.1789C23.0951 20.1672 22.283 19.3728 21.2764 19.3704ZM22.2469 24.744C22.2311 25.2698 21.7949 25.6986 21.2747 25.6998H21.249C20.7285 25.6986 20.2922 25.2697 20.2765 24.744C20.2412 23.5699 20.2412 22.3793 20.2765 21.2052C20.2922 20.6793 20.7285 20.2506 21.2493 20.2493H21.2741C21.7946 20.2506 22.2312 20.6793 22.247 21.2052C22.2821 22.3793 22.2821 23.5699 22.2469 24.744Z" fill="#3BB77E"/>
</g>
<defs>
<clipPath id="clip0_6511_522">
<rect width="30" height="30" fill="white" transform="translate(0.4375 0.206482)"/>
</clipPath>
</defs>
</svg>

<svg xmlns="http://www.w3.org/2000/svg" width="31" height="31" fill="none"><g clip-path="url(#a)"><path fill="#FDC040" d="m4.188 11.832-.375-2.063V7.894c.062-.438.224-1.313.374-1.313s1.125-.375 1.875-.562l1.5-.188c.375 0 .563 0 2.438-.375.147-.029 1.125-.187 1.5-.187l-.562-.75.75.75.75.75.187.562c-.25.063-.825.188-1.125.188H10l-.75.375v.562c0 .15-.125 1.438-.187 2.063l-.188 1.875-.75.188H4.188M18.063 6.769l.75-.938 2.437-1.687 2.813-1.125c.875-.25 2.85-.638 3.75-.188 1.125.563 1.312.75 2.25 2.438-.063 1.312-.3 4.05-.75 4.5l-.938 1.688-.562.374h-8.25V10.52c0-.187-.188-1.5-.188-1.688V7.706l-.187-.75-.375-.187z"/><path fill="#3BB77E" d="M21.977 5.439c-.261.26-.405.607-.405.976 0 .37.144.716.405.977l3.192 3.193c.261.26.608.404.977.404s.716-.144.977-.404c.26-.261.404-.608.404-.977s-.143-.716-.404-.977L23.93 5.44a1.383 1.383 0 0 0-1.953 0M26.5 9.253a.5.5 0 0 1 0 .71.5.5 0 0 1-.71 0L22.598 6.77a.5.5 0 0 1 0-.71.5.5 0 0 1 .71 0z"/><path fill="#3BB77E" d="M30.33 13.53a2.65 2.65 0 0 0-1.677-1.946c2.08-3.468 2.367-6.717.704-8.38-.73-.73-1.786-1.103-3.058-1.08a.44.44 0 0 0 .008.88h.008c1.04-.02 1.856.257 2.42.821.874.874.898 2.2.764 3.16-.19 1.356-.804 2.886-1.777 4.437q-3.804-.072-7.63-.1a45 45 0 0 0-.278-4.51.44.44 0 0 0-.39-.388l-.393-.04c1.855-1.568 3.839-2.674 5.664-3.145a.44.44 0 1 0-.22-.85c-.699.18-1.418.446-2.144.79.142-.615.209-1.351-.06-1.9a1.2 1.2 0 0 0-.779-.654c-.513-.142-1.31-.067-2.195 1.096l-.124.17-.015-.05c-.174-.58-.629-1.55-1.722-1.55-.38 0-.71.15-.957.437-.322.373-.463.954-.513 1.532-.385-.506-.85-.912-1.355-.912-.327 0-.626.167-.84.47-.566.797-.574 2.526-.049 4.337l-.394.008c-.861-1.005-1.902-1.696-2.357-1.973v-.963a.44.44 0 0 0 .363-.433v-1.24c0-.67-.544-1.213-1.213-1.213H7.388c-.668 0-1.212.544-1.212 1.212v1.241a.44.44 0 0 0 .363.433v.963c-.594.36-2.179 1.422-3.066 2.964-.18.314-.265.675-.242 1.045.043.676.148 1.989.378 3.215l-.54.01a2.644 2.644 0 0 0-2.525 2.105 5.3 5.3 0 0 0 0 2.113c.178.88.801 1.605 1.624 1.926.048.894.13 2.167.266 3.612a214 214 0 0 0-1.062 3.082c-.297.883.1 1.864.924 2.28.313.159.643.282.98.367a4.8 4.8 0 0 0 1.64 2.241 4.77 4.77 0 0 0 2.9.973h15.243a4.77 4.77 0 0 0 2.9-.973 4.8 4.8 0 0 0 1.64-2.241q.512-.13.98-.367a1.89 1.89 0 0 0 .924-2.281q-.518-1.54-1.062-3.08c.135-1.447.218-2.719.266-3.613a2.64 2.64 0 0 0 1.624-1.926 5.3 5.3 0 0 0 0-2.113M18.98 7.261c.14 1.349.219 2.71.234 4.055a651 651 0 0 0-9.781.017c.015-1.351.093-2.717.234-4.073a47 47 0 0 1 9.313 0m-4.491-4.936c.032-.045.08-.1.123-.1.317 0 .98.903 1.452 1.976a.44.44 0 0 0 .839-.247c-.22-1.485.024-2.4.243-2.654a.35.35 0 0 1 .291-.132c1.013 0 1.047 2.016 1.047 2.036a.44.44 0 0 0 .842.177c.314-.71 1.199-2.113 1.933-1.91a.33.33 0 0 1 .223.194c.187.38.087 1.223-.24 2.084a19.5 19.5 0 0 0-3.421 2.53 48 48 0 0 0-3.18-.127c-.612-1.92-.469-3.381-.152-3.827m-4.396 1.677H7.418v-.77h2.674zM7.388 1.219h2.733c.184 0 .334.15.334.334v.801h-3.4v-.8c0-.185.15-.335.333-.335M4.476 11.266c-.223-1.183-.326-2.464-.368-3.121a1 1 0 0 1 .127-.552c.838-1.457 2.458-2.474 2.86-2.712h3.319c.257.152 1.01.62 1.74 1.32q-1.47.066-2.934.223a.44.44 0 0 0-.39.388 45 45 0 0 0-.277 4.53q-2.025.022-4.042.056a1 1 0 0 1-.035-.132m-1.418 6.48.011.001h.014l.591.011q-.264.711-.523 1.422a91 91 0 0 1-.093-1.433M23.06 29.245H7.816a3.96 3.96 0 0 1-3.588-2.321 1.9 1.9 0 0 0 1.308-1.146c.253-.646.483-1.24.704-1.818a.44.44 0 0 0-.822-.313c-.219.575-.448 1.167-.7 1.81-.182.465-.679.73-1.156.619-.3-.07-.593-.177-.87-.317a1.01 1.01 0 0 1-.487-1.217 216 216 0 0 1 3.653-10.036c.182-.464.679-.73 1.155-.62.303.072.596.178.87.318.437.22.647.744.488 1.217a216 216 0 0 1-2.333 6.585.44.44 0 0 0 .823.307 217 217 0 0 0 1.615-4.484 642 642 0 0 0 13.924 0 217 217 0 0 0 2.939 7.949 1.9 1.9 0 0 0 1.308 1.145 3.96 3.96 0 0 1-3.588 2.322m5.124-3.486c-.276.14-.57.246-.87.317a1.01 1.01 0 0 1-1.156-.62 216 216 0 0 1-3.653-10.036c-.159-.473.05-.996.487-1.216.276-.14.57-.247.87-.317a1 1 0 0 1 .22-.026c.402 0 .782.251.936.645A216 216 0 0 1 28.67 24.54c.16.473-.05.996-.487 1.217m-.982-8 .59-.01h.016l.01-.001c-.024.415-.054.898-.093 1.433q-.258-.712-.523-1.422m2.268-2.29a1.755 1.755 0 0 1-1.68 1.4h-.014q-.45.01-.901.017-.511-1.358-1.039-2.702a1.89 1.89 0 0 0-2.174-1.153c-.369.086-.728.217-1.066.388a1.89 1.89 0 0 0-.924 2.281q.21.627.425 1.253c-4.422.046-8.895.046-13.318 0q.216-.627.426-1.252a1.89 1.89 0 0 0-.924-2.281 4.8 4.8 0 0 0-1.067-.389 1.89 1.89 0 0 0-2.174 1.154q-.526 1.345-1.038 2.7L3.1 16.87h-.012a1.754 1.754 0 0 1-1.681-1.401 4.4 4.4 0 0 1 0-1.764 1.76 1.76 0 0 1 1.68-1.401 647 647 0 0 1 24.703 0 1.76 1.76 0 0 1 1.68 1.401 4.4 4.4 0 0 1 0 1.764"/><path fill="#3BB77E" d="M9.628 19.37h-.03A1.85 1.85 0 0 0 7.75 21.18a60 60 0 0 0 0 3.591A1.85 1.85 0 0 0 9.6 26.58h.03a1.85 1.85 0 0 0 1.848-1.809c.036-1.191.036-2.4 0-3.591a1.85 1.85 0 0 0-1.849-1.809m.97 5.374a.99.99 0 0 1-.972.956h-.025a.99.99 0 0 1-.973-.956 59 59 0 0 1 0-3.539.99.99 0 0 1 .973-.956h.025c.52.002.957.43.973.956a59 59 0 0 1 0 3.539M15.452 19.37h-.03a1.85 1.85 0 0 0-1.848 1.809 60 60 0 0 0 0 3.591 1.85 1.85 0 0 0 1.849 1.809h.03A1.85 1.85 0 0 0 17.3 24.77c.036-1.191.036-2.4 0-3.591a1.85 1.85 0 0 0-1.849-1.809m.97 5.374a.99.99 0 0 1-.971.956h-.026a.99.99 0 0 1-.973-.956 59 59 0 0 1 0-3.539.99.99 0 0 1 .973-.956h.025c.52.002.957.43.973.956a59 59 0 0 1 0 3.539M21.276 19.37h-.03a1.85 1.85 0 0 0-1.848 1.809 60 60 0 0 0 0 3.591 1.85 1.85 0 0 0 1.85 1.809h.028a1.85 1.85 0 0 0 1.85-1.809c.035-1.191.035-2.4 0-3.591a1.85 1.85 0 0 0-1.85-1.809m.97 5.374a.99.99 0 0 1-.971.956h-.026a.99.99 0 0 1-.973-.956 59 59 0 0 1 0-3.539.99.99 0 0 1 .973-.956h.025c.52.002.957.43.973.956a59 59 0 0 1 0 3.539"/></g><defs><clipPath id="a"><path fill="#fff" d="M.438.206h30v30h-30z"/></clipPath></defs></svg>
